X: 14641
T: Gan Ainm
R: reel
M: 4/4
K: Adorian
AB|:ceee dcAB|ceec d2AB|ceee dcAB|cedc A2AB:|
|:cdef gedB|cege d2AB|cdef gedB|cedc A2AB:|

